X:3207
T:Poloness nr 79
S:efter avskrift (låt nr 79 häri) av [[Personer/Samuel Landtmanson]] 
S:efter Gustaf Blidström
R:Polska
O:Tobolsk, Ryssland / Skara, Västergötland
B:Blidströms Menuetter och Polska Dantzar
M:3/4
L:1/16
Z:Per Oldberg 2013
V:1 clef=treble
V:2 clef=treble 
K:Dmaj
V:1
|: d4D2E2F2D2 | d4D2E2F2D2 | d2de c4B4 | A2AB c4d2c2 | 
V:2
|: "D"F4A,2C2D2A,2 | F4A,2C2D2A,2 | "D"F2FG "A"A4"G"G4 | "D"F2FG "A"A4 B2A2 | 
V:1
B2A2G2F2G2E2 | F4F8 :: a4 e2f2g2a2 | g2f2g8 |  
V:2
"Em"G2F2E2D2E2B,2 | "F#7"C4C8 :: "A"c4 c2d2e2f2 | "G"e2d2B8 | 
V:1
a4 e2f2g2a2 | g2f2g4a4 | g2f2e2d2e2c2 | d4d8 :|  
V:2
"A"c4 c2d2e2f2 | "G"e2d2B4c4 | "A"e2d2c2B2c2A2 | "D"F4F8 :|
(:musicend:)
(:music:)
